svg/fire_off.svg

<svg xmlns="http://www.w3.org/2000/svg" viewBox="0 0 24 24"><path d="M22.11 21.46 2.39 1.73 1.11 3l5.98 6C5.66 10.36 4.88 12.47 5 14.47c.06.5.12 1 .29 1.5.14.6.41 1.2.71 1.73 1.08 1.73 2.95 2.97 4.96 3.22 2.14.27 4.43-.12 6.07-1.6.07-.06.12-.14.19-.21l3.62 3.62zM8.8 14.05c-.23.1-.47.04-.66-.12a.6.6 0 0 1-.14-.17c-1-1.29-1.26-3.07-.74-4.61l1.32 1.32c0 .93.15 1.86.49 2.75.04.1.08.2.08.33 0 .22-.15.42-.35.5m5.7 3.45c-.28.24-.74.5-1.1.6-1.12.4-2.24-.16-2.9-.82 1.19-.28 1.9-1.16 2.11-2.05.05-.23.05-.47.03-.7L15 16.88c-.15.23-.31.45-.5.62m4.42-1.78L9.65 6.46c.47-.81 1.07-1.54 1.81-2.14.71-.57 1.54-1.09 2.49-1.32-.95 1.85-.62 4.26.87 5.72.64.63 1.4 1.06 2.07 1.66.26.26.54.52.77.82 0 0 .56.8.77 1.26l.13.26c.4.97.5 2 .36 3"/></svg>

<svg xmlns="http://www.w3.org/2000/svg" id="mdi-fire-off" viewBox="0 0 24 24"><path d="M22.11 21.46L2.39 1.73L1.11 3L7.09 9C5.66 10.36 4.88 12.47 5 14.47C5.06 14.97 5.12 15.47 5.29 15.97C5.43 16.57 5.7 17.17 6 17.7C7.08 19.43 8.95 20.67 10.96 20.92C13.1 21.19 15.39 20.8 17.03 19.32C17.1 19.26 17.15 19.18 17.22 19.11L20.84 22.73L22.11 21.46M8.8 14.05C8.57 14.15 8.33 14.09 8.14 13.93C8.08 13.88 8.04 13.83 8 13.76C7 12.47 6.74 10.69 7.26 9.15L8.58 10.47C8.58 11.4 8.73 12.33 9.07 13.22C9.11 13.32 9.15 13.42 9.15 13.55C9.15 13.77 9 13.97 8.8 14.05M14.5 17.5C14.22 17.74 13.76 18 13.4 18.1C12.28 18.5 11.16 17.94 10.5 17.28C11.69 17 12.4 16.12 12.61 15.23C12.66 15 12.66 14.76 12.64 14.53L15 16.88C14.85 17.11 14.69 17.33 14.5 17.5M18.92 15.72L9.65 6.46C10.12 5.65 10.72 4.92 11.46 4.32C12.17 3.75 13 3.23 13.95 3C13 4.85 13.33 7.26 14.82 8.72C15.46 9.35 16.22 9.78 16.89 10.38C17.15 10.64 17.43 10.9 17.66 11.2C17.66 11.2 18.22 12 18.43 12.46L18.56 12.72C18.96 13.69 19.06 14.72 18.92 15.72Z" /></svg>
